X:5
T:Colepit Laddy. JBi.05
M:2/4
L:1/8
Q:1/4=160
S:James Biggins MS, Leeds, 1779.
R:.Reel
O:England
A:Yorkshire
Z:vmp.Nick Barber & Chris Partington.
K:G
â€œ_no key sig in msâ€c|(B/c/d/B/) GB|gddc|\
(B/c/d/B/) GB|cAAc|!
(B/c/d/B/) GB|gddf|gebf|gee:|!
|:g|(f/g/a/g/) fd|fddg|(f/g/a/g/) fd|geeg|!
(f/g/a/g/) fd|(f/g/a/g/) fd|gebf|gee:|

